src/resources/assets/download.svg

<svg xmlns="http://www.w3.org/2000/svg" width="16" height="16"><path d="M 3.5 13 L 12.5 13 C 12.777344 13 13 13.222656 13 13.5 C 13 13.746094 12.824219 13.949219 12.589844 13.992188 L 12.5 14 L 3.5 14 C 3.222656 14 3 13.777344 3 13.5 C 3 13.253906 3.175781 13.050781 3.410156 13.007812 L 3.5 13 L 12.5 13 Z M 7.910156 1.007812 L 8 1 C 8.246094 1 8.449219 1.175781 8.492188 1.410156 L 8.5 1.5 L 8.5 10.292969 L 11.183594 7.609375 C 11.355469 7.4375 11.625 7.417969 11.820312 7.554688 L 11.890625 7.609375 C 12.0625 7.785156 12.082031 8.054688 11.945312 8.25 L 11.890625 8.316406 L 8.355469 11.855469 C 8.179688 12.027344 7.910156 12.046875 7.714844 11.910156 L 7.644531 11.855469 L 4.109375 8.316406 C 3.914062 8.121094 3.914062 7.804688 4.109375 7.609375 C 4.285156 7.4375 4.554688 7.417969 4.75 7.554688 L 4.816406 7.609375 L 7.5 10.292969 L 7.5 1.5 C 7.5 1.253906 7.675781 1.050781 7.910156 1.007812 L 8 1 Z M 7.910156 1.007812" fill="#ddd"/></svg>

<svg xmlns="http://www.w3.org/2000/svg" width="16" height="16"><path d="M3.5 13h9a.5.5 0 01.09.992L12.5 14h-9a.5.5 0 01-.09-.992L3.5 13h9zM7.91 1.008L8 1a.5.5 0 01.492.41l.008.09v8.793l2.684-2.684a.498.498 0 01.636-.054l.07.054a.504.504 0 01.055.641l-.054.066-3.536 3.54a.504.504 0 01-.64.054l-.07-.055-3.536-3.539a.5.5 0 01.641-.761l.066.054L7.5 10.293V1.5a.5.5 0 01.41-.492L8 1zm0 0" fill="#ddd"/></svg>
